X: 1
T: Hole In My Pocket
Z: Susan Kingston
S: https://thesession.org/tunes/16335#setting30941
R: jig
M: 6/8
L: 1/8
K: Dmin
D2 | A,DD A>GF | BBd E3 | FGA AGF | e3 A3 |
dde f>ed | aga B3 | d/2c/2d/2e/2f/2e/2  dAA | EDE D3||
AGA D2 B | f2 d ^c3 | d/2e/2d/2e/2A/2E/2 FDD | A,B,A, B,DC | D4|]
